X:717
T:Balmullo Blacksmith, The
C:Joe Buchanan's Scottish Tome - Page 280.0
I:280 0
Z:Carl Allison
C:R.F. Crone
R:Reel
L:1/8
M:4/4
K:D
A | "D"F2 A "F#m"d2 A |"G" BGB "G"dcA |"F#m" A2 "G"d "E7"dcB |"A" cAc "C#"e"A7"cA |
"D"d2 A A"F#m"FA |"G" BGB "G"dcB | "F#m"A2 F "A7"EFG |"D" FDD "D/A7"D2 :|
F/G/ |"D" A2 F "F#m"d2 A |"G" BGd "F#m"AFD |"Em" GBG "F#m"AFD | "G"EG"Em"D "G#"E"A7"FG |
"D"A2 D "F#m"d A2 |"G" BGB "G"dcB | "F#m"A2 d "A7"cde | "D"f"G"d"D"d "A7"d2 :|
